assets/icons/ico-txt-as-caption.svg

<?xml version="1.0" encoding="UTF-8" standalone="no"?>
<svg width="47px" height="44px" viewBox="0 0 47 44" version="1.1" xmlns="http://www.w3.org/2000/svg" xmlns:xlink="http://www.w3.org/1999/xlink">
    <!-- Generator: Sketch 3.8.3 (29802) - http://www.bohemiancoding.com/sketch -->
    <title>ico-txt-as-caption</title>
    <desc>Created with Sketch.</desc>
    <defs></defs>
    <g id="Symbols" stroke="none" stroke-width="1" fill="none" fill-rule="evenodd">
        <g id="ico-txt-as-caption">
            <g id="ico-pic">
                <path d="M44.6149655,0 L2.38566893,0 C1.07019476,0 0,1.10145522 0,2.45535448 L0,32.5446455 C0,33.8985448 1.07019476,35 2.38566893,35 L44.6149655,35 C45.9299321,35 47,33.8985448 47,32.5446455 L47,2.45535448 C47,1.10145522 45.9299321,0 44.6149655,0 L44.6149655,0 Z" id="Path" fill="#FFFFFF"></path>
                <path d="M44.6149655,0 L2.38566893,0 C1.07019476,0 0,1.10145522 0,2.45535448 L0,32.5446455 C0,33.8985448 1.07019476,35 2.38566893,35 L44.6149655,35 C45.9299321,35 47,33.8985448 47,32.5446455 L47,2.45535448 C47,1.10145522 45.9299321,0 44.6149655,0 L44.6149655,0 Z M8.83183495,10.7833955 C8.83183495,9.54729478 9.76168878,8.2688806 11.3185087,8.2688806 L12.1309888,8.2688806 C12.5468091,8.2688806 12.8843379,7.92567164 12.8913169,7.49914179 C14.068988,7.11296642 15.8488815,7.4945709 17.4607719,7.8398694 C18.3114461,8.02257463 19.1227841,8.19652985 19.8251232,8.2511194 C20.1558,8.92604478 20.6231378,10.6201493 19.9004962,12.9382463 C18.4006501,11.9736567 14.969657,10.440056 9.52465726,11.7210821 C9.27189132,11.7807649 9.07762191,11.9638619 8.9879103,12.1944963 C8.9785204,12.2118657 8.96760782,12.2317164 8.95669523,12.2536567 C8.88182982,11.7818097 8.83183495,11.2797948 8.83183495,10.7833955 L8.83183495,10.7833955 Z M9.64266546,15.4302985 C9.64266546,14.5029291 10.0059531,13.6040299 10.2112619,13.1709701 C13.4771705,12.469403 15.8597941,12.9071642 17.2997478,13.4107463 C18.4179072,13.8014925 19.1515883,14.2886194 19.4969843,14.5513806 L19.4969843,15.8486007 C19.4969843,18.6448134 17.286805,20.9200746 14.5700787,20.9200746 C11.8528448,20.9200746 9.64266546,18.6448134 9.64266546,15.8486007 L9.64266546,15.4302985 Z M14.5700787,22.4872388 C15.5217577,22.4872388 16.4253452,22.2718843 17.2392211,21.8892351 C17.4037981,22.3290858 17.6541531,22.6733396 17.8900426,22.9125933 C17.7191211,23.1028731 17.5446466,23.3008582 17.3671267,23.5039366 C16.5225433,24.4680037 15.2456439,25.925597 14.5671602,25.925597 C13.8885496,25.925597 12.6117771,24.4680037 11.7670668,23.5039366 C11.5891662,23.3013806 11.4151993,23.1028731 11.2441509,22.9125933 C11.4806748,22.6728172 11.730903,22.328041 11.89548,21.8872761 C12.7108786,22.2713619 13.6159887,22.4872388 14.5700787,22.4872388 L14.5700787,22.4872388 Z M10.6359646,24.5532836 C11.9019514,25.9984701 13.2109542,27.4927612 14.5671602,27.4927612 C15.9232393,27.4927612 17.232369,25.9984701 18.4982289,24.5532836 C18.8882904,24.1084701 19.2621099,23.6814179 19.5853001,23.3640672 L21.0737261,23.9945896 C21.0911101,24.0022948 21.1088748,24.0089552 21.1267663,24.0150933 C21.65222,24.1915299 22.1701872,24.5701306 22.5948898,25.0791978 C22.1686645,25.8255597 21.9278263,26.6672575 21.9278263,27.51875 L21.9278263,33.4328358 L5.58318349,33.4328358 L5.58318349,27.51875 C5.58318349,26.0618097 6.69347567,24.456903 8.00742715,24.0150933 C8.02531871,24.0089552 8.04321028,24.0022948 8.06046739,23.9945896 L9.54902024,23.3645896 C9.87221043,23.6814179 10.2459031,24.1084701 10.6359646,24.5532836 L10.6359646,24.5532836 Z M41.056955,22.3229478 C40.4666602,22.6229291 39.472346,22.9850746 38.1176626,22.9850746 C36.7259272,22.9850746 35.8426422,21.4337127 35.8426422,20.7791604 C35.8426422,20.7338433 35.8382011,20.6894403 35.8312221,20.6460821 C37.6607298,19.4737127 38.8815436,17.38625 38.8815436,15.0095149 C38.8815436,12.846959 37.7494263,10.9201306 35.9968142,10.1003731 C35.7701877,9.99419776 35.5075243,10.0090858 35.29346,10.1396828 L35.0847251,10.2671455 C33.2497611,11.3894963 30.7372016,12.9264925 26.6662995,13.3775746 C26.2792834,13.4204104 25.9862931,13.7565672 25.9862931,14.1569776 L25.9862931,15.0095149 C25.9862931,17.3857276 27.2071069,19.4731903 29.0361071,20.6455597 C29.0291281,20.6894403 29.0241794,20.7338433 29.0241794,20.7791604 C29.0241794,21.4342351 28.141402,22.9850746 26.749159,22.9850746 C25.3820404,22.9850746 24.39369,22.6259328 23.808344,22.3269963 C24.365901,21.4000187 25.0792796,19.5788433 25.0792796,16.3302425 L25.0792796,14.3335448 C25.0792796,10.5288619 28.3784335,7.43279851 32.4338549,7.43279851 C36.4888957,7.43279851 39.7876689,10.5288619 39.7876689,14.3335448 L39.7876689,16.3302425 C39.7876689,19.5747948 40.4993979,21.3949254 41.056955,22.3229478 L41.056955,22.3229478 Z M41.4178316,27.51875 L41.4178316,33.4328358 L23.4500051,33.4328358 L23.4500051,27.51875 C23.4500051,26.3075933 24.2212458,25.0725373 25.348922,24.4395336 C25.5551191,24.4736194 25.7707061,24.5011754 25.9961906,24.5201119 C26.1657163,28.0237687 28.9885232,30.8208955 32.4338549,30.8208955 C35.8798212,30.8208955 38.702628,28.0237687 38.8716462,24.5201119 C39.0971307,24.500653 39.3127177,24.4732276 39.5189148,24.4395336 C40.646591,25.0720149 41.4178316,26.3072015 41.4178316,27.51875 L41.4178316,27.51875 Z M32.4338549,20.0782463 C29.7181437,20.0782463 27.5089795,17.8040299 27.5089795,15.0095149 L27.5089795,14.8492724 C31.3999509,14.288097 33.9575565,12.7776119 35.7033164,11.7114179 C36.7199634,12.3572201 37.3588572,13.6086007 37.3588572,15.0095149 C37.3588572,17.8040299 35.149693,20.0782463 32.4338549,20.0782463 L32.4338549,20.0782463 Z M30.4849432,21.3347201 C31.1001085,21.535709 31.7548637,21.6454104 32.4338549,21.6454104 C33.1129731,21.6454104 33.7672207,21.535709 34.382386,21.3347201 C34.6465721,22.591194 35.7474743,24.087444 37.3499749,24.4629104 C37.2101415,27.1289179 35.0589663,29.2537313 32.4338549,29.2537313 C29.809378,29.2537313 27.6582028,27.1289179 27.5183694,24.4623881 C29.1203624,24.0870522 30.2207571,22.5906716 30.4849432,21.3347201 L30.4849432,21.3347201 Z M45.4773136,32.5446455 C45.4773136,33.0343843 45.0902975,33.4328358 44.6149655,33.4328358 L42.940518,33.4328358 L42.940518,27.51875 C42.940518,26.1769963 42.3427367,24.8597948 41.3637763,23.9008209 C42.1881841,23.5406343 42.6362345,23.1595522 42.6708757,23.1293843 C42.8473804,22.9754104 42.9599323,22.7586194 42.9539684,22.5208022 C42.947497,22.2861194 42.8523291,22.0770336 42.6729059,21.9336381 C42.6258295,21.8862313 42.3140595,21.5530784 42.0033046,20.7782463 C41.6869665,19.9899627 41.3103553,18.5784701 41.3103553,16.3307649 L41.3103553,14.3335448 C41.3103553,9.66470149 37.3286573,5.86615672 32.4338549,5.86615672 C27.5391795,5.86615672 23.5565932,9.66470149 23.5565932,14.3335448 L23.5565932,16.3307649 C23.5565932,18.5784701 23.1798552,19.9899627 22.8641515,20.7782463 C22.5532697,21.5530784 22.2414997,21.8862313 22.1944233,21.9336381 C22.0150001,22.0770336 21.9198322,22.2861194 21.9133608,22.5208022 C21.9124725,22.5652052 21.9164061,22.6085634 21.9232582,22.6513993 C21.8256794,22.6090858 21.7274661,22.5692537 21.6278571,22.5351679 L19.7294478,21.7306903 C19.4831533,21.6266045 19.2025983,21.6633022 18.9889146,21.8255037 C18.8729367,21.7173694 18.6425035,21.4535634 18.5889557,21.0352612 C20.0690069,19.8175746 21.0196707,17.9458582 21.0196707,15.8486007 L21.0196707,14.3325 C22.5953974,10.4753172 21.3919676,7.66996269 20.8363139,6.98393657 C20.6915318,6.80475746 20.4774675,6.70171642 20.2514754,6.70171642 C19.617911,6.70171642 18.7207949,6.50947761 17.7711462,6.30587687 C15.5544954,5.83089552 12.8238111,5.24686567 11.1965669,6.70485075 C10.2271233,6.73593284 9.27189132,7.13438433 8.55914719,7.81126866 C7.75326541,8.57761194 7.30914854,9.63309701 7.30914854,10.7833955 C7.30914854,12.7026493 7.9316735,14.6182463 8.11997905,15.1533022 L8.11997905,15.8486007 C8.11997905,17.9433769 9.06823201,19.8130037 10.5457454,21.0306903 C10.4932127,21.4516045 10.2617644,21.716847 10.1452789,21.8249813 C9.93172209,21.6633022 9.65116712,21.6260821 9.40474571,21.7306903 L7.50582887,22.5351679 C5.57176335,23.2018657 4.06049709,25.3842724 4.06049709,27.51875 L4.06049709,33.4328358 L2.38566893,33.4328358 C1.90982943,33.4328358 1.52268641,33.0343843 1.52268641,32.5446455 L1.52268641,2.45535448 C1.52268641,1.96561567 1.90982943,1.56716418 2.38566893,1.56716418 L44.6149655,1.56716418 C45.0902975,1.56716418 45.4773136,1.96561567 45.4773136,2.45535448 L45.4773136,32.5446455 Z" id="Fill-1" fill="#000000"></path>
            </g>
            <polygon id="Stroke-11-Copy-4" stroke="#000000" stroke-linejoin="round" fill="#FFFFFF" points="11 44 35 44 35 40 11 40"></polygon>
        </g>
    </g>
</svg>

<?xml version="1.0" encoding="UTF-8" standalone="no"?>
<svg
   xmlns:dc="http://purl.org/dc/elements/1.1/"
   xmlns:cc="http://creativecommons.org/ns#"
   xmlns:rdf="http://www.w3.org/1999/02/22-rdf-syntax-ns#"
   xmlns:svg="http://www.w3.org/2000/svg"
   xmlns="http://www.w3.org/2000/svg"
   xmlns:sodipodi="http://sodipodi.sourceforge.net/DTD/sodipodi-0.dtd"
   xmlns:inkscape="http://www.inkscape.org/namespaces/inkscape"
   width="47"
   height="45"
   viewBox="0 0 47 45"
   version="1.1"
   id="svg2"
   inkscape:version="0.48.4 r9939"
   sodipodi:docname="ico-txt-as-caption.svg">
  <metadata
     id="metadata18">
    <rdf:RDF>
      <cc:Work
         rdf:about="">
        <dc:format>image/svg+xml</dc:format>
        <dc:type
           rdf:resource="http://purl.org/dc/dcmitype/StillImage" />
      </cc:Work>
    </rdf:RDF>
  </metadata>
  <sodipodi:namedview
     pagecolor="#ffffff"
     bordercolor="#666666"
     borderopacity="1"
     objecttolerance="10"
     gridtolerance="10"
     guidetolerance="10"
     inkscape:pageopacity="0"
     inkscape:pageshadow="2"
     inkscape:window-width="1920"
     inkscape:window-height="1052"
     id="namedview16"
     showgrid="false"
     inkscape:zoom="10.727273"
     inkscape:cx="7.0206147"
     inkscape:cy="21.078027"
     inkscape:window-x="0"
     inkscape:window-y="0"
     inkscape:window-maximized="1"
     inkscape:current-layer="svg2" />
  <!-- Generator: Sketch 3.8.3 (29802) - http://www.bohemiancoding.com/sketch -->
  <title
     id="title4">ico-txt-as-caption</title>
  <desc
     id="desc6">Created with Sketch.</desc>
  <defs
     id="defs8" />
  <g
     id="g2995"
     transform="translate(0,-0.75)">
    <g
       transform="translate(0,1)"
       style="fill:none;stroke:none"
       id="Symbols">
      <g
         id="ico-txt-as-caption">
        <g
           id="ico-pic">
          <path
             style="fill:#ffffff"
             inkscape:connector-curvature="0"
             id="Path"
             d="M 44.614965,0 2.3856689,0 C 1.0701948,0 0,1.1014552 0,2.4553545 L 0,32.544646 C 0,33.898545 1.0701948,35 2.3856689,35 L 44.614965,35 C 45.929932,35 47,33.898545 47,32.544646 L 47,2.4553545 C 47,1.1014552 45.929932,0 44.614965,0 l 0,0 z" />
          <path
             style="fill:#000000"
             inkscape:connector-curvature="0"
             id="Fill-1"
             d="M 44.614965,0 2.3856689,0 C 1.0701948,0 0,1.1014552 0,2.4553545 L 0,32.544646 C 0,33.898545 1.0701948,35 2.3856689,35 L 44.614965,35 C 45.929932,35 47,33.898545 47,32.544646 L 47,2.4553545 C 47,1.1014552 45.929932,0 44.614965,0 l 0,0 z M 8.8318349,10.783395 c 0,-1.2361002 0.9298539,-2.5145144 2.4866741,-2.5145144 l 0.81248,0 c 0.41582,0 0.753349,-0.343209 0.760328,-0.7697388 1.177671,-0.3861754 2.957564,-0.00457 4.569455,0.3407276 0.850674,0.1827052 1.662012,0.3566604 2.364351,0.41125 0.330677,0.6749254 0.798015,2.3690296 0.07537,4.6871266 -1.499846,-0.964589 -4.930839,-2.49819 -10.3758387,-1.217164 -0.252766,0.05968 -0.4470354,0.24278 -0.536747,0.473414 -0.00939,0.01737 -0.020302,0.03722 -0.031215,0.05916 C 8.8818298,11.78181 8.8318349,11.279795 8.8318349,10.783395 l 0,0 z m 0.8108306,4.646903 c 0,-0.927369 0.3632875,-1.826268 0.5685965,-2.259328 3.265909,-0.701567 5.648532,-0.263806 7.088486,0.239776 1.118159,0.390747 1.85184,0.877873 2.197236,1.140635 l 0,1.29722 c 0,2.796212 -2.210179,5.071474 -4.926905,5.071474 -2.717234,0 -4.9274135,-2.275262 -4.9274135,-5.071474 l 0,-0.418303 z m 4.9274135,7.056941 c 0.951679,0 1.855266,-0.215355 2.669142,-0.598004 0.164577,0.439851 0.414932,0.784105 0.650822,1.023358 -0.170922,0.19028 -0.345396,0.388265 -0.522916,0.591344 -0.844584,0.964067 -2.121483,2.42166 -2.799967,2.42166 -0.67861,0 -1.955383,-1.457593 -2.800093,-2.42166 -0.177901,-0.202556 -0.351868,-0.401064 -0.522916,-0.591344 0.236524,-0.239776 0.486752,-0.584552 0.651329,-1.025317 0.815399,0.384086 1.720509,0.599963 2.674599,0.599963 l 0,0 z m -3.934114,2.066045 c 1.265986,1.445186 2.574989,2.939477 3.931195,2.939477 1.356079,0 2.665209,-1.494291 3.931069,-2.939477 0.390061,-0.444814 0.763881,-0.871866 1.087071,-1.189217 l 1.488426,0.630523 c 0.01738,0.0077 0.03515,0.01437 0.05304,0.0205 0.525454,0.176437 1.043421,0.555038 1.468124,1.064105 -0.426226,0.746362 -0.667064,1.58806 -0.667064,2.439552 l 0,5.914086 -16.3446425,0 0,-5.914086 c 0,-1.45694 1.1102922,-3.061847 2.4242437,-3.503657 0.017891,-0.0061 0.035783,-0.0128 0.05304,-0.0205 l 1.4885528,-0.63 c 0.3231902,0.316828 0.696883,0.74388 1.086945,1.188694 l 0,0 z m 30.42099,-2.230336 c -0.590295,0.299981 -1.584609,0.662127 -2.939292,0.662127 -1.391736,0 -2.275021,-1.551362 -2.275021,-2.205915 0,-0.04532 -0.0044,-0.08972 -0.01142,-0.133078 1.829508,-1.172369 3.050322,-3.259832 3.050322,-5.636567 0,-2.162556 -1.132118,-4.089384 -2.88473,-4.909142 -0.226626,-0.1061752 -0.48929,-0.09129 -0.703354,0.03931 l -0.208735,0.127463 c -1.834964,1.12235 -4.347523,2.659347 -8.418426,3.110429 -0.387016,0.04284 -0.680006,0.378992 -0.680006,0.779403 l 0,0.852537 c 0,2.376213 1.220814,4.463675 3.049814,5.636045 -0.007,0.04388 -0.01193,0.08828 -0.01193,0.1336 0,0.655075 -0.882777,2.205915 -2.27502,2.205915 -1.367119,0 -2.355469,-0.359142 -2.940815,-0.658079 0.557557,-0.926977 1.270936,-2.748153 1.270936,-5.996754 l 0,-1.996697 c 0,-3.804683 3.299153,-6.9007465 7.354575,-6.9007465 4.055041,0 7.353814,3.0960635 7.353814,6.9007465 l 0,1.996697 c 0,3.244553 0.711729,5.064683 1.269286,5.992706 l 0,0 z m 0.360877,5.195802 0,5.914086 -17.967827,0 0,-5.914086 c 0,-1.211157 0.771241,-2.446213 1.898917,-3.079216 0.206197,0.03409 0.421784,0.06164 0.647269,0.08058 0.169525,3.503657 2.992332,6.300783 6.437664,6.300783 3.445966,0 6.268773,-2.797126 6.437791,-6.300783 0.225485,-0.01946 0.441072,-0.04688 0.647269,-0.08058 1.127676,0.632481 1.898917,1.867668 1.898917,3.079216 l 0,0 z m -8.983977,-7.440504 c -2.715711,0 -4.924876,-2.274216 -4.924876,-5.068731 l 0,-0.160243 c 3.890972,-0.561175 6.448578,-2.07166 8.194337,-3.137854 1.016647,0.645802 1.655541,1.897183 1.655541,3.298097 0,2.794515 -2.209164,5.068731 -4.925002,5.068731 l 0,0 z m -1.948912,1.256474 c 0.615165,0.200989 1.269921,0.31069 1.948912,0.31069 0.679118,0 1.333366,-0.109701 1.948531,-0.31069 0.264186,1.256474 1.365088,2.752724 2.967589,3.12819 -0.139834,2.666008 -2.291009,4.790821 -4.91612,4.790821 -2.624477,0 -4.775652,-2.124813 -4.915486,-4.791343 1.601993,-0.375336 2.702388,-1.871716 2.966574,-3.127668 l 0,0 z m 14.992371,11.209926 c 0,0.489738 -0.387017,0.88819 -0.862349,0.88819 l -1.674447,0 0,-5.914086 c 0,-1.341754 -0.597781,-2.658955 -1.576742,-3.617929 0.824408,-0.360187 1.272458,-0.741269 1.3071,-0.771437 0.176504,-0.153974 0.289056,-0.370765 0.283092,-0.608582 -0.0065,-0.234683 -0.101639,-0.443768 -0.281062,-0.587164 -0.04708,-0.04741 -0.358847,-0.38056 -0.669601,-1.155392 -0.316339,-0.788283 -0.69295,-2.199776 -0.69295,-4.447481 l 0,-1.99722 c 0,-4.6688435 -3.981698,-8.4673883 -8.8765,-8.4673883 -4.894676,0 -8.877262,3.7985448 -8.877262,8.4673883 l 0,1.99722 c 0,2.247705 -0.376738,3.659198 -0.692442,4.447481 -0.310881,0.774832 -0.622651,1.107985 -0.669728,1.155392 -0.179423,0.143396 -0.274591,0.352481 -0.281062,0.587164 -8.89e-4,0.0444 0.003,0.08776 0.0099,0.130597 -0.09758,-0.04231 -0.195792,-0.08215 -0.295401,-0.116231 L 19.729448,21.73069 c -0.246295,-0.104086 -0.52685,-0.06739 -0.740533,0.09481 -0.115978,-0.108135 -0.346412,-0.371941 -0.399959,-0.790243 1.480051,-1.217686 2.430715,-3.089403 2.430715,-5.18666 l 0,-1.516101 C 22.595397,10.475317 21.391968,7.6699627 20.836314,6.9839366 20.691532,6.8047575 20.477467,6.7017164 20.251475,6.7017164 c -0.633564,0 -1.53068,-0.1922388 -2.480329,-0.3958395 C 15.554495,5.8308955 12.823811,5.2468657 11.196567,6.7048507 10.227123,6.7359328 9.2718913,7.1343843 8.5591472,7.8112687 7.7532654,8.5776119 7.3091485,9.633097 7.3091485,10.783395 c 0,1.919254 0.622525,3.834851 0.8108306,4.369907 l 0,0.695299 c 0,2.094776 0.9482529,3.964403 2.4257659,5.182089 -0.05253,0.420914 -0.283981,0.686157 -0.400466,0.794291 C 9.9317221,21.663302 9.6511671,21.626082 9.4047457,21.73069 L 7.5058289,22.535168 C 5.5717634,23.201866 4.0604971,25.384272 4.0604971,27.51875 l 0,5.914086 -1.6748282,0 c -0.4758395,0 -0.8629825,-0.398452 -0.8629825,-0.88819 l 0,-30.0892915 c 0,-0.4897388 0.387143,-0.8881903 0.8629825,-0.8881903 l 42.2292961,0 c 0.475332,0 0.862349,0.3984515 0.862349,0.8881903 l 0,30.0892915 z" />
        </g>
        <polygon
           style="fill:#ffffff;stroke:#000000;stroke-linejoin:round"
           points="11,44 35,44 35,40 11,40 "
           id="Stroke-11-Copy-4" />
      </g>
    </g>
  </g>
</svg>
